X: 429
T: Polonez No 3
C: Anonim
L: 1/8
M: 3/4
N: Derived from pl-sa--548-a-ix-28--006_anonim--polonez-no-3.krn
%%staves {1 2}
V: 1 clef=treble
V: 2 clef=bass
K: G
[V:1] B/d/!trill!d g>f f/e/c/B/ | 
[V:2] [G,B,]D, [G,B,]D, [G,B,]D, | 
[V:1] d>^c=c2z2 | 
[V:2] [A,C]D, z [D,D][_E,_E][D,D] | 
[V:1] d/(3e//d//^c//d/e/ f/(3g//^f//e//f/g/ a/b/c'/f/ | 
[V:2] [D,,D,][A,CF] [A,CD][A,CD] [A,CD][A,CD] | 
[V:1] a>g g/d/^c/d/ e/f/g/a/ | 
[V:2] [G,B,]D,[G,2B,2]z2 | 
[V:1] bc'/a/ g{/a}g/f/ g/b/e'/d'/ | 
[V:2] G,/D/B,/D/ G,/D/B,/D/ G,/D/B,/D/ | 
[V:1] d'c'a2a/c'/b/a/ | 
[V:2] A,/D/C/D/ A,/D/C/D/ A,/D/C/D/ | 
[V:1] g/f/a/f/ d/e/f/g/ a/b/c'/a/ | 
[V:2] [D,,D,][A,CD] [D,,D,][A,CD] [D,,D,][A,CD] | 
[V:1] gb d'/c'/a/f/g2 ||  
[V:2] [G,B,]D, [D,F,A,]D[G,2B,2] ||  
[V:1] a/b/a/g/ g!trill!def [I:setbarnb 10]| 
[V:2] [A,C]D [A,C]D [A,C]D | 
[V:1] g/f/g/b/!trill!d3g | 
[V:2] [G,B,]D [G,B,]D [G,B,]D | 
[V:1] ff/e/ d/e/f/g< af/ | 
[V:2] D,[A,CD] D,[A,CD] D,[A,CD] | 
[V:1] g>[Bd] [c/e/][B/d/][A/c/][G/B/] [GB][FA] ||  
[V:2] [G,2B,2D2]z2DD, ||  
[V:1] [M:3/4]d/b/f2<!trill!g2d | 
[V:2] [M:3/4][G,B,]D, [G,B,]D, [G,B,]D, | 
[V:1] B/d/g/d< bd'/ c'/b/a/g/ | 
[V:2] [G,B,]D, [G,B,]D, [G,B,]D, | 
[V:1] d/c'/^ga2a/g/f/e/ | 
[V:2] [A,C]D, [A,C]D, [A,C]D, | 
[V:1] d/e/f/g/ a/b/c'/a/g2 ||  
[V:2] [A,C]D, [A,C]D,[G,2B,2] ||  
[V:1] f/g/^g/a/ =g/f/e/d/ ^c/d/e/f/ [I:setbarnb 18]| 
[V:2] [F,A,]D, [F,A,]D, [F,A,]D, | 
[V:1] g{/a/g/f/}g/a/ b/c'/^c'/d'/ =c'/b/a/g/ | 
[V:2] [G,B,]D, [G,B,]D, [G,B,]D, | 
[V:1] f/g/^g/a/ =g/f/e/d/ ^c/d/e/f/ | 
[V:2] [D,,D,][A,CD] [A,CD][A,CD] [A,CD][A,CD] | 
[V:1] g>d =c/B/A/G/D2 |]  
[V:2] [G,B,]D, B,,G,, D,D,, |]  

